src/assets/svg/icons/fa/nuevos/classic/light/lasso-sparkles classic light.svg

<svg xmlns="http://www.w3.org/2000/svg" viewBox="0 0 576 512"><path d="M336 0C344.8 0 352 7.164 352 16V64H400C408.8 64 416 71.16 416 80C416 88.84 408.8 96 400 96H352V144C352 152.8 344.8 160 336 160C327.2 160 320 152.8 320 144V96H272C263.2 96 256 88.84 256 80C256 71.16 263.2 64 272 64H320V16C320 7.164 327.2 0 336 0zM255.5 1.11C264.5 .4899 272 7.77 272 16.82C272 25.44 265.2 32.48 256.6 33.08C130 41.79 32 102.5 32 175.1C32 223.1 72.22 264.9 134.4 291.2C139.9 293.5 145.6 295.7 151.4 297.8C190.9 311.9 237.8 319.1 288 319.1C429.4 319.1 544 255.5 544 175.1C544 121.7 490.6 74.42 411.7 49.88C404.8 47.76 400 41.51 400 34.34C400 23.94 409.8 16.33 419.7 19.45C512.5 48.68 576 107.8 576 175.1C576 273.2 447.1 352 288 352C265.1 352 242.7 350.4 221.3 347.3C233.3 364.5 240 385.2 240 407C240 464.1 192.1 511.1 135 511.1H48C39.16 511.1 32 504.8 32 495.1C32 487.2 39.16 479.1 48 479.1H135C175.3 479.1 208 447.3 208 407C208 379.4 192.4 354.1 167.6 341.7L132.8 324.3C52.92 292.1 0 238.3 0 175.1C0 85.52 111.7 10.99 255.5 1.11V1.11zM512 416H560C568.8 416 576 423.2 576 432C576 440.8 568.8 448 560 448H512V496C512 504.8 504.8 512 496 512C487.2 512 480 504.8 480 496V448H432C423.2 448 416 440.8 416 432C416 423.2 423.2 416 432 416H480V368C480 359.2 487.2 352 496 352C504.8 352 512 359.2 512 368V416z"/></svg>

<svg xmlns="http://www.w3.org/2000/svg" viewBox="0 0 576 512"><!--! Font Awesome Pro 6.4.0 by @fontawesome - https://fontawesome.com License - https://fontawesome.com/license (Commercial License) Copyright 2023 Fonticons, Inc. --><path d="M336 0c8.8 0 16 7.2 16 16V64h48c8.8 0 16 7.2 16 16s-7.2 16-16 16H352v48c0 8.8-7.2 16-16 16s-16-7.2-16-16V96H272c-8.8 0-16-7.2-16-16s7.2-16 16-16h48V16c0-8.8 7.2-16 16-16zM0 176C0 85.4 112 10.8 256 1.1v32C129.7 42 32 102.6 32 176c0 47.1 40.2 88.9 102.4 115.2l0 0c5.5 2.3 11.2 4.5 17 6.6l0 0C190.9 311.9 237.8 320 288 320c141.4 0 256-64.5 256-144c0-45.5-37.5-86-96-112.4V29.6C525.2 61.2 576 115 576 176c0 97.2-128.9 176-288 176c-22.9 0-45.3-1.6-66.7-4.7c11.9 17.2 18.7 38 18.7 59.7c0 58-47 105-105 105H48c-8.8 0-16-7.2-16-16s7.2-16 16-16h87c40.3 0 73-32.7 73-73c0-27.6-15.6-52.9-40.4-65.3l-34.9-17.4C52.9 293 0 238.3 0 176zM512 368v48h48c8.8 0 16 7.2 16 16s-7.2 16-16 16H512v48c0 8.8-7.2 16-16 16s-16-7.2-16-16V448H432c-8.8 0-16-7.2-16-16s7.2-16 16-16h48V368c0-8.8 7.2-16 16-16s16 7.2 16 16z"/></svg>
